X: 1
T:Road to Ballymac, The
R:reel
S:session
H:Also in E, #270
Z:id:hn-reel-457
M:C|
K:G
DG~G2 BAGA|Bdde d2de|gd~d2 egde|gedB AGEG|
DG~G2 BAGA|Bdde d2de|gd~d2 egdB|1 cAFA G2GE:|2 cAFA G2GA||
|:Bd~d2 edBd|eg~g2 a2ga|(3bag ag egde|gedB AGEG|
Bd~d2 edBd|eg~g2 a2ga|(3bag ag egdB|1 cAFA G2GA:|2 cAFA G2GE||
